flaticon/social-media/soundcloud.svg

<svg xmlns="http://www.w3.org/2000/svg" width="32" height="32" viewBox="0 0 24 24">
    <path d="M1.199219 13.398438C.519531 13.398438 0 13.921875 0 14.601562L0 16.199219C0 16.878906.519531 17.398438 1.199219 17.398438 1.878906 17.398438 2.398438 16.878906 2.398438 16.199219L2.398438 14.601562C2.398438 13.921875 1.878906 13.398438 1.199219 13.398438zM1.601562 16.199219C1.601562 16.441406 1.441406 16.601562 1.199219 16.601562.960938 16.601562.800781 16.441406.800781 16.199219L.800781 14.601562C.800781 14.359375.960938 14.199219 1.199219 14.199219 1.441406 14.199219 1.601562 14.359375 1.601562 14.601562zM4.398438 11.800781C3.71875 11.800781 3.199219 12.320312 3.199219 13L3.199219 16.199219C3.199219 16.878906 3.71875 17.398438 4.398438 17.398438 5.078125 17.398438 5.601562 16.878906 5.601562 16.199219L5.601562 13C5.601562 12.320312 5.078125 11.800781 4.398438 11.800781zM4.800781 16.199219C4.800781 16.441406 4.640625 16.601562 4.398438 16.601562 4.160156 16.601562 4 16.441406 4 16.199219L4 13C4 12.761719 4.160156 12.601562 4.398438 12.601562 4.640625 12.601562 4.800781 12.761719 4.800781 13zM7.601562 10.199219C6.921875 10.199219 6.398438 10.71875 6.398438 11.398438L6.398438 16.199219C6.398438 16.878906 6.921875 17.398438 7.601562 17.398438 8.28125 17.398438 8.800781 16.878906 8.800781 16.199219L8.800781 11.398438C8.800781 10.71875 8.28125 10.199219 7.601562 10.199219zM8 16.199219C8 16.441406 7.839844 16.601562 7.601562 16.601562 7.359375 16.601562 7.199219 16.441406 7.199219 16.199219L7.199219 11.398438C7.199219 11.160156 7.359375 11 7.601562 11 7.839844 11 8 11.160156 8 11.398438zM10.800781 8.601562C10.121094 8.601562 9.601562 9.238281 9.601562 10L9.601562 16C9.601562 16.761719 10.121094 17.398438 10.800781 17.398438 11.480469 17.398438 12 16.761719 12 16L12 10C12 9.238281 11.480469 8.601562 10.800781 8.601562zM11.199219 16C11.199219 16.359375 11 16.601562 10.800781 16.601562 10.601562 16.601562 10.398438 16.359375 10.398438 16L10.398438 10C10.398438 9.640625 10.601562 9.398438 10.800781 9.398438 11 9.398438 11.199219 9.640625 11.199219 10zM20.800781 11C20.601562 11 20.398438 11 20.199219 11.039062 19.519531 8.441406 17.121094 6.601562 14.398438 6.601562 13.960938 6.601562 13.519531 6.640625 13.121094 6.71875L12.800781 6.800781 12.800781 17.398438 20.800781 17.398438C22.558594 17.398438 24 15.960938 24 14.199219 24 12.441406 22.558594 11 20.800781 11zM20.800781 16.601562L13.601562 16.601562 13.601562 7.480469C13.878906 7.441406 14.121094 7.398438 14.398438 7.398438 16.878906 7.398438 19.039062 9.160156 19.519531 11.640625L19.601562 12.078125 20.039062 11.921875C20.28125 11.839844 20.558594 11.800781 20.800781 11.800781 22.121094 11.800781 23.199219 12.878906 23.199219 14.199219 23.199219 15.519531 22.121094 16.601562 20.800781 16.601562zM20.800781 16.601562"/>
</svg>

<svg xmlns="http://www.w3.org/2000/svg" width="32" height="32" viewBox="0 0 24 24">
    <path d="M1.2 13.398c-.68 0-1.2.524-1.2 1.204v1.597c0 .68.52 1.2 1.2 1.2.679 0 1.198-.52 1.198-1.2v-1.597c0-.68-.52-1.204-1.199-1.204zm.402 2.801c0 .242-.16.403-.403.403-.238 0-.398-.16-.398-.403v-1.597c0-.243.16-.403.398-.403.242 0 .403.16.403.403zm0 0M4.398 11.8c-.68 0-1.199.52-1.199 1.2v3.2c0 .679.52 1.198 1.2 1.198.68 0 1.203-.52 1.203-1.199V13c0-.68-.524-1.2-1.204-1.2zm.403 4.4c0 .241-.16.402-.403.402-.238 0-.398-.16-.398-.403V13c0-.238.16-.398.398-.398.243 0 .403.16.403.398zm0 0M7.602 10.2c-.68 0-1.204.519-1.204 1.198V16.2c0 .68.524 1.2 1.204 1.2.68 0 1.199-.52 1.199-1.2v-4.8c0-.68-.52-1.2-1.2-1.2zm.398 6c0 .241-.16.402-.398.402-.243 0-.403-.16-.403-.403v-4.8c0-.239.16-.399.403-.399.238 0 .398.16.398.398zm0 0M10.8 8.602c-.679 0-1.198.636-1.198 1.398v6c0 .762.52 1.398 1.199 1.398.68 0 1.199-.636 1.199-1.398v-6c0-.762-.52-1.398-1.2-1.398zM11.2 16c0 .36-.2.602-.4.602-.198 0-.402-.243-.402-.602v-6c0-.36.204-.602.403-.602.199 0 .398.243.398.602zm0 0M20.8 11c-.198 0-.402 0-.6.04-.68-2.599-3.079-4.438-5.802-4.438-.437 0-.878.039-1.277.117l-.32.082v10.597h8c1.758 0 3.199-1.437 3.199-3.199A3.21 3.21 0 0 0 20.8 11zm0 5.602h-7.198V7.48c.277-.039.52-.082.796-.082 2.48 0 4.641 1.762 5.122 4.243l.082.437.437-.156a2.404 2.404 0 0 1 3.16 2.277 2.407 2.407 0 0 1-2.398 2.403zm0 0"/>
</svg>
